Sources/FrostedUI/Resources/Icons.xcassets/cameraAdd16.imageset/camera-add-16.svg

<svg width="16" height="16" viewBox="0 0 16 16" fill="none" xmlns="http://www.w3.org/2000/svg" data-fui-icon="true">
  <path
    d="M9 0.75C9.41421 0.75 9.75 1.08579 9.75 1.5C9.75 1.91421 9.41421 2.25 9 2.25H6.40625C5.8092 2.25017 5.25852 2.57279 4.9668 3.09375L4.72363 3.52832C4.30113 4.2826 3.5042 4.74985 2.63965 4.75C2.14854 4.75 1.75 5.14854 1.75 5.63965V12.0996C1.75 13.0109 2.48912 13.75 3.40039 13.75H12.5996C13.5109 13.75 14.25 13.0109 14.25 12.0996V7.625C14.25 7.21079 14.5858 6.875 15 6.875C15.4142 6.875 15.75 7.21079 15.75 7.625V12.0996C15.75 13.8393 14.3393 15.25 12.5996 15.25H3.40039C1.66069 15.25 0.25 13.8393 0.25 12.0996V5.63965C0.25 4.32011 1.32011 3.25 2.63965 3.25C2.96136 3.24985 3.25784 3.07564 3.41504 2.79492L3.6582 2.36133C4.2152 1.36665 5.26626 0.75017 6.40625 0.75H9ZM8 5C9.933 5 11.5 6.567 11.5 8.5C11.5 10.433 9.933 12 8 12C6.067 12 4.5 10.433 4.5 8.5C4.5 6.567 6.067 5 8 5ZM8 6.5C6.89543 6.5 6 7.39543 6 8.5C6 9.60457 6.89543 10.5 8 10.5C9.10457 10.5 10 9.60457 10 8.5C10 7.39543 9.10457 6.5 8 6.5ZM13 0.75C13.4142 0.75 13.75 1.08579 13.75 1.5V2.75H15C15.4142 2.75 15.75 3.08579 15.75 3.5C15.75 3.91421 15.4142 4.25 15 4.25H13.75V5.5C13.75 5.91421 13.4142 6.25 13 6.25C12.5858 6.25 12.25 5.91421 12.25 5.5V4.25H11C10.5858 4.25 10.25 3.91421 10.25 3.5C10.25 3.08579 10.5858 2.75 11 2.75H12.25V1.5C12.25 1.08579 12.5858 0.75 13 0.75Z"
    fill="currentColor"
  />
</svg>

<svg xmlns="http://www.w3.org/2000/svg" width="16" height="16" fill="none" data-fui-icon="true" viewBox="0 0 16 16"><path fill="currentColor" d="M9 .75a.75.75 0 0 1 0 1.5H6.406a1.65 1.65 0 0 0-1.44.844l-.242.434A2.39 2.39 0 0 1 2.64 4.75a.89.89 0 0 0-.89.89v6.46c0 .91.74 1.65 1.65 1.65h9.2c.91 0 1.65-.74 1.65-1.65V7.625a.75.75 0 0 1 1.5 0V12.1a3.15 3.15 0 0 1-3.15 3.15H3.4A3.15 3.15 0 0 1 .25 12.1V5.64a2.39 2.39 0 0 1 2.39-2.39.89.89 0 0 0 .775-.455l.243-.434A3.15 3.15 0 0 1 6.406.75zM8 5a3.5 3.5 0 1 1 0 7 3.5 3.5 0 0 1 0-7m0 1.5a2 2 0 1 0 0 4 2 2 0 0 0 0-4m5-5.75a.75.75 0 0 1 .75.75v1.25H15a.75.75 0 0 1 0 1.5h-1.25V5.5a.75.75 0 0 1-1.5 0V4.25H11a.75.75 0 0 1 0-1.5h1.25V1.5A.75.75 0 0 1 13 .75"/></svg>
